src/assets/images/loud-speaker.svg

<svg width="96" height="70" viewBox="0 0 96 70" fill="none" xmlns="http://www.w3.org/2000/svg">
<path d="M93.3199 26.0611H92.3199H87.99C87.4329 26.0532 86.893 26.2541 86.4766 26.6242C86.0601 26.9944 85.7974 27.507 85.74 28.0611C85.6916 28.3563 85.7064 28.6583 85.7836 28.9472C85.8607 29.2362 85.9985 29.5054 86.1876 29.737C86.3767 29.9687 86.613 30.1575 86.8806 30.291C87.1482 30.4244 87.4412 30.4996 87.74 30.5112C88.6832 30.6134 89.6313 30.6634 90.58 30.6611C91.5 30.6611 92.46 30.6611 93.52 30.5411C93.817 30.5298 94.1086 30.4589 94.3777 30.3327C94.6467 30.2066 94.8877 30.0278 95.0863 29.8067C95.2849 29.5857 95.4372 29.3271 95.5341 29.0461C95.6309 28.7652 95.6703 28.4676 95.65 28.1711C95.6019 27.5894 95.3344 27.0478 94.9017 26.656C94.4691 26.2642 93.9036 26.0515 93.3199 26.0611ZM85.1699 15.1711C85.8634 15.1356 86.5144 14.8263 86.98 14.3111C87.8 13.5311 88.59 12.7311 89.39 11.9311L90.48 10.8312C90.7752 10.584 91.0033 10.2664 91.1432 9.90769C91.2831 9.549 91.3304 9.1608 91.2805 8.77903C91.2307 8.39726 91.0853 8.03424 90.858 7.72349C90.6307 7.41274 90.3287 7.16432 89.98 7.0012C89.6851 6.86535 89.3646 6.79369 89.0399 6.79112C88.4599 6.80046 87.9068 7.03755 87.5 7.45115C86.03 8.86115 84.84 10.0411 83.75 11.1711C83.5078 11.3739 83.3114 11.6259 83.174 11.9103C83.0365 12.1947 82.9609 12.5051 82.9524 12.8209C82.9439 13.1367 83.0025 13.4506 83.1245 13.742C83.2465 14.0334 83.4291 14.2957 83.66 14.5112C84.0576 14.9203 84.5996 15.1572 85.1699 15.1711ZM87.77 41.2911L86.96 40.4912C86.7273 40.2474 86.4482 40.0528 86.139 39.9188C85.8299 39.7848 85.497 39.7142 85.16 39.7112C84.7423 39.7138 84.3336 39.8332 83.9802 40.0559C83.6268 40.2785 83.3428 40.5956 83.16 40.9712C82.9291 41.3896 82.8477 41.8744 82.9296 42.3453C83.0114 42.8162 83.2514 43.2451 83.61 43.5611C84.8 44.7911 86.03 46.0212 87.25 47.2212C87.4841 47.4763 87.7662 47.6827 88.0802 47.8286C88.3942 47.9745 88.734 48.0569 89.08 48.0711C89.3591 48.0678 89.6348 48.0086 89.8907 47.8969C90.1467 47.7853 90.3776 47.6235 90.5699 47.4211C90.7941 47.2007 90.9706 46.9365 91.0883 46.645C91.2059 46.3535 91.2622 46.0408 91.2538 45.7265C91.2453 45.4123 91.1723 45.1031 91.0392 44.8183C90.9061 44.5335 90.7157 44.2792 90.48 44.0711C89.63 43.1311 88.68 42.1911 87.77 41.2911ZM75.3099 19.0411C73.963 17.9388 72.3665 17.1835 70.66 16.8412C70.01 16.7112 69.84 16.4312 69.85 15.8412C69.85 11.9912 69.85 8.13111 69.85 4.28111C69.8903 3.54127 69.7275 2.8045 69.379 2.15061C69.0306 1.49673 68.5098 0.950718 67.8732 0.571633C67.2366 0.192549 66.5084 -0.00510511 65.7675 0.000100221C65.0265 0.00530555 64.3011 0.213183 63.6699 0.601174C53.5758 6.22796 42.5075 9.89243 31.0499 11.4011C25.2599 12.2211 19.44 11.8712 13.64 11.9912C12.4614 11.9571 11.2982 12.2659 10.2917 12.8801C9.28525 13.4943 8.47868 14.3874 7.96997 15.4511C7.9032 15.573 7.84631 15.7001 7.79993 15.8312C7.22993 17.2712 7.22997 17.3012 5.71997 17.2612C4.45669 17.1311 3.1882 17.4537 2.14062 18.1716C1.09305 18.8895 0.334499 19.956 0 21.1811V34.3612C0.263309 35.5112 0.913466 36.5359 1.8418 37.264C2.77013 37.9921 3.92032 38.3795 5.09998 38.3612C5.61998 38.3612 6.10002 38.4112 6.65002 38.3612C6.75767 38.3428 6.86791 38.3469 6.97388 38.3733C7.07984 38.3997 7.17917 38.4478 7.26562 38.5145C7.35208 38.5812 7.42381 38.6651 7.4762 38.761C7.52858 38.8568 7.56045 38.9624 7.56995 39.0711C7.67762 39.6904 7.9105 40.2812 8.25439 40.8074C8.59829 41.3335 9.04595 41.784 9.56995 42.1312C10.8799 42.1912 12.06 42.2611 13.12 42.3211V67.0711C13.12 67.4515 13.1951 67.8281 13.3409 68.1794C13.4868 68.5307 13.7005 68.8498 13.97 69.1183C14.2394 69.3868 14.5591 69.5993 14.9109 69.744C15.2627 69.8886 15.6397 69.9625 16.02 69.9612H24.4199C25.2845 69.9612 26.1137 69.6177 26.7251 69.0063C27.3365 68.395 27.6799 67.5658 27.6799 66.7011V58.5012V43.8011L29.6799 44.0311C33.1422 44.4476 36.5802 45.0451 39.98 45.8211C48.2488 47.7426 56.209 50.8088 63.63 54.9311C64.4807 55.4866 65.5042 55.714 66.51 55.5711C67.4975 55.4303 68.3967 54.9255 69.0312 54.1559C69.6658 53.3863 69.9898 52.4073 69.9399 51.4111C69.9399 47.5211 69.9399 43.6212 69.9399 39.7312C69.9365 39.4929 70.0182 39.2613 70.1704 39.078C70.3226 38.8946 70.5352 38.7717 70.77 38.7312C72.8839 38.3079 74.8233 37.2633 76.34 35.7312C78.0131 34.0107 79.1374 31.8318 79.5699 29.4712C79.5699 28.4712 79.57 27.6011 79.64 26.6511C79.23 23.6517 77.679 20.9259 75.3099 19.0411ZM6.65002 34.3011C6.13002 34.3011 5.64998 34.3011 5.09998 34.3011C4.09998 34.3011 3.71998 33.5911 4.09998 32.3011C4.85475 29.3012 4.85475 26.161 4.09998 23.1611C3.81998 21.9711 4.19998 21.4112 5.09998 21.3412C7.45998 21.1512 7.45996 21.1412 7.45996 23.5112V27.8512C7.45996 29.7712 7.45996 31.6912 7.45996 33.6012C7.45954 33.7026 7.43741 33.8027 7.39502 33.8949C7.35263 33.987 7.29099 34.0691 7.21423 34.1355C7.13748 34.2018 7.0474 34.2508 6.95007 34.2794C6.85274 34.308 6.75046 34.3154 6.65002 34.3011ZM13.65 39.5711C11.74 39.5711 10.95 38.2612 11.53 35.8812C12.7381 30.6163 12.7381 25.1461 11.53 19.8812C10.98 17.3112 11.64 16.0212 13.6 16.0112C16.73 16.0112 19.86 16.0112 22.99 16.0112C23.65 16.0112 23.8199 16.2711 23.8099 16.8911C23.8099 20.5611 23.8099 24.2311 23.8099 27.8911C23.8099 31.5511 23.8099 35.0711 23.8099 38.6711C23.8099 39.4011 23.57 39.5912 22.87 39.5812C19.85 39.5612 16.7699 39.5811 13.6899 39.5711H13.65ZM24.0499 65.4712C24.0499 65.7205 23.9509 65.9596 23.7747 66.1358C23.5984 66.3121 23.3593 66.4111 23.11 66.4111H17.5399C17.4178 66.4111 17.2969 66.387 17.1841 66.3403C17.0712 66.2936 16.9687 66.2251 16.8823 66.1388C16.796 66.0524 16.7275 65.9498 16.6808 65.837C16.634 65.7242 16.61 65.6033 16.61 65.4812V43.2412H23.61L24.0699 43.7011L24.0499 65.4712ZM65.0499 51.2312C61.99 49.5312 58.8348 48.0086 55.6 46.6711C48.7582 43.8274 41.6007 41.813 34.28 40.6711C32.28 40.3611 30.35 40.0811 28.37 39.9111C27.95 39.9111 27.75 39.7111 27.77 39.2911C27.77 39.1311 27.77 38.9811 27.77 38.8211C27.77 31.4811 27.77 24.1411 27.77 16.8211C27.77 16.0011 28.07 15.7511 28.77 15.6811C35.5713 15.0182 42.2786 13.6064 48.77 11.4712C54.2247 9.69012 59.5063 7.41742 64.5499 4.68113L65.24 4.32115C65.58 4.11115 65.77 4.15117 65.75 4.60117C65.75 4.81117 65.75 5.01117 65.75 5.22117V50.2212C65.75 50.4312 65.75 50.6412 65.75 50.8412C65.85 51.4312 65.61 51.5112 65.11 51.2312H65.0499ZM70.48 34.6312C69.91 34.8012 69.7899 34.6312 69.7899 34.1012C69.7899 32.0012 69.7899 29.9078 69.7899 27.8211C69.7899 25.7311 69.7899 23.6311 69.7899 21.5411C69.7899 20.9611 69.9 20.7511 70.53 20.9311C71.9729 21.405 73.2292 22.3224 74.1199 23.5525C75.0106 24.7825 75.4902 26.2624 75.4902 27.7811C75.4902 29.2998 75.0106 30.7797 74.1199 32.0097C73.2292 33.2398 71.9729 34.1573 70.53 34.6312H70.48Z" fill="#5C5C5C"/>
</svg>

<?xml version="1.0" encoding="utf-8"?>
<!-- Generator: Adobe Illustrator 25.4.1, SVG Export Plug-In . SVG Version: 6.00 Build 0)  -->
<svg version="1.1" id="Layer_1" xmlns="http://www.w3.org/2000/svg" xmlns:xlink="http://www.w3.org/1999/xlink" x="0px" y="0px"
	 viewBox="0 0 96 70" style="enable-background:new 0 0 96 70;" xml:space="preserve">
<style type="text/css">
	.st0{fill:#FFFFFF;}
</style>
<path class="st0" d="M93.3,26.1h-1H88c-0.6,0-1.1,0.2-1.5,0.6c-0.4,0.4-0.7,0.9-0.7,1.4c0,0.3,0,0.6,0,0.9c0.1,0.3,0.2,0.6,0.4,0.8
	c0.2,0.2,0.4,0.4,0.7,0.6c0.3,0.1,0.6,0.2,0.9,0.2c0.9,0.1,1.9,0.2,2.8,0.1c0.9,0,1.9,0,2.9-0.1c0.3,0,0.6-0.1,0.9-0.2
	c0.3-0.1,0.5-0.3,0.7-0.5c0.2-0.2,0.4-0.5,0.4-0.8c0.1-0.3,0.1-0.6,0.1-0.9c0-0.6-0.3-1.1-0.7-1.5C94.5,26.3,93.9,26.1,93.3,26.1z
	 M85.2,15.2c0.7,0,1.3-0.3,1.8-0.9c0.8-0.8,1.6-1.6,2.4-2.4l1.1-1.1c0.3-0.2,0.5-0.6,0.7-0.9c0.1-0.4,0.2-0.7,0.1-1.1
	c0-0.4-0.2-0.7-0.4-1.1C90.6,7.4,90.3,7.2,90,7c-0.3-0.1-0.6-0.2-0.9-0.2c-0.6,0-1.1,0.2-1.5,0.7c-1.5,1.4-2.7,2.6-3.8,3.7
	c-0.2,0.2-0.4,0.5-0.6,0.7C83,12.2,83,12.5,83,12.8s0.1,0.6,0.2,0.9c0.1,0.3,0.3,0.6,0.5,0.8C84.1,14.9,84.6,15.2,85.2,15.2z
	 M87.8,41.3L87,40.5c-0.2-0.2-0.5-0.4-0.8-0.6c-0.3-0.1-0.6-0.2-1-0.2c-0.4,0-0.8,0.1-1.2,0.3c-0.4,0.2-0.6,0.5-0.8,0.9
	c-0.2,0.4-0.3,0.9-0.2,1.4c0.1,0.5,0.3,0.9,0.7,1.2c1.2,1.2,2.4,2.5,3.6,3.7c0.2,0.3,0.5,0.5,0.8,0.6c0.3,0.1,0.7,0.2,1,0.2
	c0.3,0,0.6-0.1,0.8-0.2c0.3-0.1,0.5-0.3,0.7-0.5c0.2-0.2,0.4-0.5,0.5-0.8c0.1-0.3,0.2-0.6,0.2-0.9c0-0.3-0.1-0.6-0.2-0.9
	c-0.1-0.3-0.3-0.5-0.6-0.7C89.6,43.1,88.7,42.2,87.8,41.3z M75.3,19c-1.3-1.1-2.9-1.9-4.6-2.2c-0.7-0.1-0.8-0.4-0.8-1
	c0-3.8,0-7.7,0-11.6c0-0.7-0.1-1.5-0.5-2.1C69,1.5,68.5,1,67.9,0.6C67.2,0.2,66.5,0,65.8,0c-0.7,0-1.5,0.2-2.1,0.6
	C53.6,6.2,42.5,9.9,31,11.4c-5.8,0.8-11.6,0.5-17.4,0.6c-1.2,0-2.3,0.3-3.3,0.9c-1,0.6-1.8,1.5-2.3,2.6c-0.1,0.1-0.1,0.2-0.2,0.4
	c-0.6,1.4-0.6,1.5-2.1,1.4c-1.3-0.1-2.5,0.2-3.6,0.9c-1,0.7-1.8,1.8-2.1,3v13.2c0.3,1.2,0.9,2.2,1.8,2.9c0.9,0.7,2.1,1.1,3.3,1.1
	c0.5,0,1,0.1,1.6,0c0.1,0,0.2,0,0.3,0c0.1,0,0.2,0.1,0.3,0.1c0.1,0.1,0.2,0.2,0.2,0.2c0.1,0.1,0.1,0.2,0.1,0.3
	c0.1,0.6,0.3,1.2,0.7,1.7c0.3,0.5,0.8,1,1.3,1.3c1.3,0.1,2.5,0.1,3.6,0.2v24.8c0,0.4,0.1,0.8,0.2,1.1c0.1,0.4,0.4,0.7,0.6,0.9
	c0.3,0.3,0.6,0.5,0.9,0.6c0.4,0.1,0.7,0.2,1.1,0.2h8.4c0.9,0,1.7-0.3,2.3-1c0.6-0.6,1-1.4,1-2.3v-8.2V43.8l2,0.2
	c3.5,0.4,6.9,1,10.3,1.8c8.3,1.9,16.2,5,23.7,9.1c0.9,0.6,1.9,0.8,2.9,0.6c1-0.1,1.9-0.6,2.5-1.4c0.6-0.8,1-1.7,0.9-2.7
	c0-3.9,0-7.8,0-11.7c0-0.2,0.1-0.5,0.2-0.7c0.2-0.2,0.4-0.3,0.6-0.3c2.1-0.4,4.1-1.5,5.6-3c1.7-1.7,2.8-3.9,3.2-6.3
	c0-1,0-1.9,0.1-2.8C79.2,23.7,77.7,20.9,75.3,19z M6.7,34.3c-0.5,0-1,0-1.6,0c-1,0-1.4-0.7-1-2c0.8-3,0.8-6.1,0-9.1
	c-0.3-1.2,0.1-1.7,1-1.8c2.4-0.2,2.4-0.2,2.4,2.2v4.3c0,1.9,0,3.8,0,5.8c0,0.1,0,0.2-0.1,0.3c0,0.1-0.1,0.2-0.2,0.2
	C7.1,34.2,7,34.3,7,34.3S6.8,34.3,6.7,34.3z M13.6,39.6c-1.9,0-2.7-1.3-2.1-3.7c1.2-5.3,1.2-10.7,0-16C11,17.3,11.6,16,13.6,16
	c3.1,0,6.3,0,9.4,0c0.7,0,0.8,0.3,0.8,0.9c0,3.7,0,7.3,0,11s0,7.2,0,10.8c0,0.7-0.2,0.9-0.9,0.9C19.9,39.6,16.8,39.6,13.6,39.6
	L13.6,39.6z M24,65.5c0,0.2-0.1,0.5-0.3,0.7c-0.2,0.2-0.4,0.3-0.7,0.3h-5.6c-0.1,0-0.2,0-0.4-0.1c-0.1,0-0.2-0.1-0.3-0.2
	c-0.1-0.1-0.2-0.2-0.2-0.3c0-0.1-0.1-0.2-0.1-0.4V43.2h7l0.5,0.5L24,65.5z M65,51.2c-3.1-1.7-6.2-3.2-9.4-4.6
	c-6.8-2.8-14-4.9-21.3-6c-2-0.3-3.9-0.6-5.9-0.8c-0.4,0-0.6-0.2-0.6-0.6c0-0.2,0-0.3,0-0.5c0-7.3,0-14.7,0-22c0-0.8,0.3-1.1,1-1.1
	c6.8-0.7,13.5-2.1,20-4.2c5.5-1.8,10.7-4.1,15.8-6.8l0.7-0.4c0.3-0.2,0.5-0.2,0.5,0.3c0,0.2,0,0.4,0,0.6v45c0,0.2,0,0.4,0,0.6
	C65.8,51.4,65.6,51.5,65,51.2L65,51.2z M70.5,34.6c-0.6,0.2-0.7,0-0.7-0.5c0-2.1,0-4.2,0-6.3c0-2.1,0-4.2,0-6.3
	c0-0.6,0.1-0.8,0.7-0.6c1.4,0.5,2.7,1.4,3.6,2.6c0.9,1.2,1.4,2.7,1.4,4.2c0,1.5-0.5,3-1.4,4.2C73.2,33.2,72,34.2,70.5,34.6
	L70.5,34.6z"/>
</svg>
